X: 7043
T: Chinquapin Hunting
R: polka
M: 2/4
K: Amajor
|:"A"e3e|"D"fec2|"A"e3e|"D"fecd|"A"e3e|"D"fefg|"A"abaf|"E"efed|"A"cBA2:|
|:"A"a3a|a2g2|"D"f3f|f4|"A"a3a|fgaf|"E"efed|"A"cBA2:|
"D"f3e|fec2|"E"B3B|B4|"D"fefg|f2fg|"E"efed|"A"cBA2|
"D"f3e|fec2|"E"B3B|B4|"D"fefg|a2af|
"E"efed|"A"cBA2||

